X: 157
T:Fairy Dance. JC.156
M:C|
L:1/8
Q:200
C:by Nathaniel Gow
S:John Clare,Poet,Helpstone (1793-1864)
R:Reel
O:England
A:Northamptonshire
N:
Z:vmp.P. Headford
K:D
f2fdg2ge|f2fd ecBA|f2fd gfed|cABcd2d2:|!
|:a2afb2b2|g2gea2a2|f2fd Aged|cABcd4:|]
